X:7518
T:Thomas Clancy's (2)
O:england
R:Reel
S:Thomas Clancy (Mouth organ)
D:From RTE feature on the Clonmel Fleadh
H:Played in 'C' but set in 'D' here
M:4/4
K:D
|: D2FD EFGA | BEGE BEGE | D2FD EFGA |1 BGEG FDED :|2 BGEF D4 ||
d2dc dfed | BEGE BEGE | d2dc dfed | GFEG FDD2 |
d2dc dfed | BEGE BEGE | D2FD EFGA | BGEG FDD2 ||


